packages/bezier-icons/icons/call-missed.svg

<svg width="24" height="24" viewBox="0 0 24 24" fill="none" xmlns="http://www.w3.org/2000/svg">
<path fill-rule="evenodd" clip-rule="evenodd" d="M21.2071 9.70711C20.8166 10.0976 20.1834 10.0976 19.7929 9.70711L17.75 7.66421L15.7071 9.70711C15.3166 10.0976 14.6834 10.0976 14.2929 9.70711C13.9024 9.31658 13.9024 8.68342 14.2929 8.29289L16.3358 6.25L14.2929 4.20711C13.9024 3.81658 13.9024 3.18342 14.2929 2.79289C14.6834 2.40237 15.3166 2.40237 15.7071 2.79289L17.75 4.83579L19.7929 2.79289C20.1834 2.40237 20.8166 2.40237 21.2071 2.79289C21.5976 3.18342 21.5976 3.81658 21.2071 4.20711L19.1642 6.25L21.2071 8.29289C21.5976 8.68342 21.5976 9.31658 21.2071 9.70711ZM7.75088 16.2532C2.58593 11.0883 2.58593 6.56896 4.19998 4.95491C5.16841 3.98648 6.58425 3.72371 7.42807 4.30928C8.20282 4.82579 9.36494 6.28347 9.36493 7.53739C9.36493 8.29362 8.80701 8.94392 8.34719 9.47987C8.0219 9.85903 7.7457 10.181 7.75088 10.4427C7.76339 11.0743 8.45799 12.7177 9.8722 14.1319C11.2864 15.5461 12.9298 16.2407 13.5615 16.2532C13.8232 16.2584 14.1451 15.9822 14.5243 15.6569C15.0602 15.1971 15.7105 14.6392 16.4667 14.6392C17.7207 14.6392 19.1783 15.8013 19.6948 16.5761C20.2804 17.4199 20.0176 18.8357 19.0492 19.8042C17.4352 21.4182 12.9158 21.4182 7.75088 16.2532Z" fill="#313234"/>
</svg>

<svg xmlns="http://www.w3.org/2000/svg" width="24" height="24" fill="none" viewBox="0 0 24 24"><path fill="#313234" fill-rule="evenodd" d="M21.207 9.707a1 1 0 0 1-1.414 0L17.75 7.664l-2.043 2.043a1 1 0 0 1-1.414-1.414l2.043-2.043-2.043-2.043a1 1 0 0 1 1.414-1.414l2.043 2.043 2.043-2.043a1 1 0 1 1 1.414 1.414L19.164 6.25l2.043 2.043a1 1 0 0 1 0 1.414M7.751 16.253C2.586 11.088 2.586 6.57 4.2 4.955c.968-.969 2.384-1.231 3.228-.646.775.517 1.937 1.974 1.937 3.228 0 .757-.558 1.407-1.018 1.943-.325.379-.601.701-.596.963.012.631.707 2.275 2.121 3.689s3.058 2.109 3.69 2.121c.261.005.583-.27.962-.596.536-.46 1.187-1.018 1.943-1.018 1.254 0 2.711 1.162 3.228 1.937.585.844.323 2.26-.646 3.228-1.614 1.614-6.133 1.614-11.298-3.55" clip-rule="evenodd"/></svg>
